!!!SOCIAL_FUNCTION:	songs of the sun dance
!!!PDT:	1918

Specific Region: Dakotas, Minnesota, Montana, Nebraska
!!!REG: Dakotas and Montana
!!!LING_GROUP: Siouan
!!!LANG: Tone
!!!OTL@ENG: Noon Song
!!!ONM: No. 24
**kern
*Imale
*clefF4
*k[b-e-a-d-]
*M2/4
*>[A,B,B]
*>norep[A,B]
*>A
*MM58
8.e-
16e-
=1
2e-
=2
8c
8e-
16d-
8.c
=3
4c
*>B
=!|:
8.c
16c
=4
2c
=5
2B-
=6
16B-
8.A-
8F
16A-
16A-
=7
8.A-
16A-
4A-
=8
2F
=9
16F
8.E-
4C
=10||
*M3/4
8.E-
16F
16F
[8.E-
4E-]
=11||
*M2/4
4F
16F
8.E-
=12
16C
8.C
4C
=13||
*M3/4
2.C
=14
2C
==:|!
*-
!!!CNT: Native American -- Sioux
!!!MRD: 1911/07//-1914///
!!!OCL: Frances Densmore
!!!YOR1: Teton Sioux Music, Bulletin 61,
!!!YOR2: Bureau of American Ethnology, Smithsonian Institution
!!!PPR: Government Printing Office
!!!PPP: Washington, D.C.
!!!PDT: 1918///
!!!ENC: Craig Stuart Sapp
!!!END: 2002/03/25/
!!!EEV: 2002/03/31/
!!!AGN: Ceremonial Song/Song of the Sun Dance
!!!MPN@@SIO: Zintka'la-lu'ta
!!!MPN@ENG: Red Bird
!!!TXO: Teton Sioux
!!!MLC: Standing Rock Reservation, South Dakota, United States of America
!!!ARL: 45.9/-100.7#
!!!catalog: Catalogue No. 506
!!!PPG: 138
!!!EFL: 24/245
!!!VTS: 2905407453
